src/svg/zoom-out.svg

<?xml version="1.0" encoding="UTF-8"?><svg id="_イヤー_2" xmlns="http://www.w3.org/2000/svg" viewBox="0 0 591.02334 591.02334"><defs><style>.cls-1{fill:#050101;}</style></defs><path class="cls-1" d="M518.23043,476.79285l-89.04688-88.99622c25.1842-33.75354,40.09344-75.62427,40.09344-120.97742,0-111.83179-90.65051-202.4895-202.47363-202.4895S64.32973,154.98743,64.32973,266.81922s90.65051,202.4895,202.47363,202.4895c45.5202,0,87.53198-15.02283,121.34857-40.38135l89.27063,89.19751c11.28424,11.42493,29.52368,11.42493,40.80786,0,11.28424-11.4248,11.28424-29.9071,0-41.33203Zm-251.42706-65.33838c-79.87366,0-144.62402-64.75537-144.62402-144.63525S186.92971,122.18396,266.80337,122.18396s144.62402,64.75537,144.62402,144.63525-64.75037,144.63525-144.62402,144.63525Zm103.08154-144.78345v.29626c0,13.26282-10.75171,24.01453-24.01453,24.01453H187.73635c-13.26282,0-24.01453-10.75171-24.01453-24.01453v-.29626c0-13.2627,10.75171-24.0144,24.01453-24.0144h158.13403c13.26282,0,24.01453,10.75171,24.01453,24.0144Z"/></svg>

<svg id="レイヤー_2" data-name="レイヤー 2" xmlns="http://www.w3.org/2000/svg" viewBox="0 0 591.02 591.02"><defs><style>.cls-1{fill:#050101;}</style></defs><path class="cls-1" d="M518.23,476.79l-89.05-89a201.6,201.6,0,0,0,40.1-121C469.28,155,378.63,64.33,266.8,64.33S64.33,155,64.33,266.82,155,469.31,266.8,469.31a201.55,201.55,0,0,0,121.35-40.38l89.27,89.19a28.57,28.57,0,0,0,40.81,0A29.47,29.47,0,0,0,518.23,476.79ZM266.8,411.45A144.64,144.64,0,1,1,411.43,266.82,144.62,144.62,0,0,1,266.8,411.45ZM369.88,266.67v.3a24,24,0,0,1-24,24H187.74a24,24,0,0,1-24-24v-.3a24,24,0,0,1,24-24H345.87A24,24,0,0,1,369.88,266.67Z"/></svg>
